site/assets/images/landing/icon-platform.svg

<?xml version="1.0" encoding="UTF-8" standalone="no"?>
<svg width="88px" height="90px" viewBox="0 0 88 90" version="1.1" xmlns="http://www.w3.org/2000/svg" xmlns:xlink="http://www.w3.org/1999/xlink" xmlns:sketch="http://www.bohemiancoding.com/sketch/ns">
    <!-- Generator: Sketch 3.3.3 (12081) - http://www.bohemiancoding.com/sketch -->
    <title>icon-platform</title>
    <desc>Created with Sketch.</desc>
    <defs></defs>
    <g id="Page-2" stroke="none" stroke-width="1" fill="none" fill-rule="evenodd" sketch:type="MSPage">
        <g id="desktop-1280" sketch:type="MSArtboardGroup" transform="translate(-1020.000000, -650.000000)">
            <g id="tiles" sketch:type="MSLayerGroup" transform="translate(344.000000, 609.000000)">
                <g id="platform" transform="translate(600.000000, 0.000000)" sketch:type="MSShapeGroup">
                    <g id="icon-platform" transform="translate(76.000000, 41.000000)">
                        <path d="M2.03400948,65.9082028 L41.2861801,88.9618894 C43.079128,89.8067281 45.1923791,89.8067281 46.985327,88.9618894 L86.2379147,65.9082028 C88.5872227,64.801659 88.5872227,61.6437788 86.2379147,60.5376498 L46.985327,37.4835484 C45.1923791,36.6387097 43.079128,36.6387097 41.2861801,37.4835484 L2.03400948,60.5376498 C-0.315298578,61.6437788 -0.315298578,64.801659 2.03400948,65.9082028" id="Fill-1" fill="#696CB4"></path>
                        <path d="M2.03400948,47.6593548 L41.2861801,70.7130415 C43.079128,71.5578802 45.1923791,71.5578802 46.985327,70.7130415 L86.2379147,47.6593548 C88.5872227,46.5528111 88.5872227,43.3949309 86.2379147,42.2888018 L46.985327,19.2347005 C45.1923791,18.3898618 43.079128,18.3898618 41.2861801,19.2347005 L2.03400948,42.2888018 C-0.315298578,43.3949309 -0.315298578,46.5528111 2.03400948,47.6593548" id="Fill-2" fill="#8384E3"></path>
                        <path d="M2.03400948,29.4105069 L41.2861801,52.4641935 C43.079128,53.3090323 45.1923791,53.3090323 46.985327,52.4641935 L86.2379147,29.4105069 C88.5872227,28.3039631 88.5872227,25.1460829 86.2379147,24.0399539 L46.985327,0.985852535 C45.1923791,0.141013825 43.079128,0.141013825 41.2861801,0.985852535 L2.03400948,24.0399539 C-0.315298578,25.1460829 -0.315298578,28.3039631 2.03400948,29.4105069" id="Fill-3" fill="#CCD0FF"></path>
                    </g>
                </g>
            </g>
        </g>
    </g>
</svg>

<svg width="88" height="90" xmlns="http://www.w3.org/2000/svg"><g fill="none" fill-rule="evenodd"><path d="M2.034 65.908l39.252 23.054c1.793.845 3.906.845 5.7 0l39.252-23.054c2.35-1.106 2.35-4.264 0-5.37L46.985 37.484c-1.793-.845-3.906-.845-5.7 0L2.036 60.538c-2.35 1.106-2.35 4.264 0 5.37" fill="#696CB4"/><path d="M2.034 47.66l39.252 23.053c1.793.845 3.906.845 5.7 0L86.237 47.66c2.35-1.107 2.35-4.265 0-5.37L46.985 19.234c-1.793-.845-3.906-.845-5.7 0L2.036 42.29c-2.35 1.105-2.35 4.263 0 5.37" fill="#8384E3"/><path d="M2.034 29.41l39.252 23.054c1.793.845 3.906.845 5.7 0L86.237 29.41c2.35-1.106 2.35-4.264 0-5.37L46.985.986c-1.793-.845-3.906-.845-5.7 0L2.036 24.04c-2.35 1.106-2.35 4.264 0 5.37" fill="#CCD0FF"/></g></svg>
